!!!SOCIAL_FUNCTION:	songs of the bear dance
!!!PDT:	1922
!!!OTL: No_9_Bear_Dance_Song_(e).krn
!!!REG: Southwest
!!!LANG: Non-Tone
!!!LING_GROUP: Uto-Aztecan
**kern
*staff1
=1-
*clefF4
*k[b-e-a-]
*M2/4
4c\
8.c\L
16B-\Jk
=2
2B-\
=3
4c\
8.c\L
16F\Jk
=4
16E-\LK
8.E-\J
4C/
=5||
*M3/4
12F\L
12E-\
12C\J
16E-\LK
8.E-\J
4C/
=6||
*M2/4
2C/
=7
2C/
=8
4c\
8.c\L
16B-\Jk
=9
2B-\
=10
4c\
8.c\L
16F\Jk
=11
16E-\LK
8.E-\J
4C/
=12||
*M3/4
12F\L
12E-\
12C\J
16E-\LK
8.E-\J
4C/
=13||
*M2/4
2C/
=14
2C/
=15
8E-\L
8E-\J
8.E-\L
16E-\Jk
=16
4F\
8E-\L
8E-\J
=17
8E-\L
8E-\J
4E-\
=18||
*M3/4
16F\LL
16E-\J
8E-\J
8E-\L
8E-\J
4E-\
=19||
*M2/4
8E-\L
8E-\J
8.E-\L
16E-\Jk
=20
4F\
8E-\L
8E-\J
=21
8E-\L
8E-\J
4E-\
=22||
*M3/4
16F\LL
16E-\J
8E-\J
8E-\L
8E-\J
4E-\
=23||
*M2/4
8E-\L
8E-\J
4E-\
=24
8E-\L
8E-\J
8E-\L
8E-\J
=25
8E-\L
8E-\J
4E-\
=26
8E-\L
8E-\J
4E-\
==
*-
